X: 26063
T: McCoy's Measure
R: hornpipe
M: 4/4
K: Eminor
|:(AG)|E2 E>F E2 D>E|G2G2 G>AB>c|d2d2 e>dc>B|c2A2 A>cB>G|
E2 E>F E2 D>E|G2 G2 G>AB>c|d2g2 e>fg>e|d2G2G2:|
|:(ef)|g>fg>e d>eg>a|b2 a2a2 g>a|b>ag>f e>de>f|g2G2G2 B>d|
e2 e>g d2 d>B|c>BA>G E2 D>E|G2g2 e>fg>e|d2G2G2:|

